svgs/sharp-solid/drone-front.svg

<svg xmlns="http://www.w3.org/2000/svg" viewBox="0 0 640 512"><!--! Font Awesome Pro 6.6.0 by @fontawesome - https://fontawesome.com License - https://fontawesome.com/license (Commercial License) Copyright 2024 Fonticons, Inc. --><path d="M160 112l0-16L96 96l0 16-72 0L0 112l0 48 24 0 72 0 0 16 0 16 0 64 0 20.8 19 8.4 56.5 25.1-21.9 26.3-5.6 6.7 0 8.7 0 40 0 24 48 0 0-24 0-31.3 25.1-30.1L259 349.2l6.2 2.8 6.8 0 96 0 6.8 0 6.2-2.8 41.9-18.6L448 360.7l0 31.3 0 24 48 0 0-24 0-40 0-8.7-5.6-6.7-21.9-26.3L525 285.2l19-8.4 0-20.8 0-64 0-16 0-16 72 0 24 0 0-48-24 0-72 0 0-16-64 0 0 16-104 0-24 0 0 48 24 0 104 0 0 16 0 16 0 43.2-17.8 7.9-40.6-23.7C390.7 201.5 355.7 192 320 192s-70.7 9.5-101.6 27.5l-40.6 23.7L160 235.2l0-43.2 0-16 0-16 104 0 24 0 0-48-24 0-104 0z"/></svg>

<svg xmlns="http://www.w3.org/2000/svg" viewBox="0 0 640 512"><!--! Font Awesome Pro 6.4.2 by @fontawesome - https://fontawesome.com License - https://fontawesome.com/license (Commercial License) Copyright 2023 Fonticons, Inc. --><path d="M160 112V96H96v16H24 0v48H24 96v16 16 64 20.8l19 8.4 56.5 25.1-21.9 26.3-5.6 6.7V352v40 24h48V392 360.7l25.1-30.1L259 349.2l6.2 2.8H272h96 6.8l6.2-2.8 41.9-18.6L448 360.7V392v24h48V392 352v-8.7l-5.6-6.7-21.9-26.3L525 285.2l19-8.4V256 192 176 160h72 24V112H616 544V96H480v16H376 352v48h24H480v16 16 43.2l-17.8 7.9-40.6-23.7C390.7 201.5 355.7 192 320 192s-70.7 9.5-101.6 27.5l-40.6 23.7L160 235.2V192 176 160H264h24V112H264 160z"/></svg>
